X:11
T: EIJENBEIJEN BISCH BISCH BISCH
N: K0038
O: Europa, Mitteleuropa, Deutschland, Weimar
R: Kinder -, Wiegen - Lied
M: 2/4
L: 1/8
K: G
 | ddBB | GGDz |
ddBB | GGDz |
GGAA | BBAA |
BGAD | GGGG

